packages/foundations/assets/icons/functional/images/buildings/house_32.svg

<svg width="32" height="32" viewBox="0 0 32 32" fill="none" xmlns="http://www.w3.org/2000/svg">
<g clip-path="url(#clip0_184_187)">
<path fill-rule="evenodd" clip-rule="evenodd" d="M16 3.50007C16.688 3.50007 17.437 3.72007 17.969 4.25007L28.719 15.9691C28.8117 16.064 28.8833 16.1775 28.929 16.3021C28.976 16.4281 29 16.5621 29 16.6881C29 17.2501 28.531 17.6881 28 17.6881C27.781 17.6881 27.5 17.5941 27.375 17.4681L26 16.0951V27.5001C26 28.0161 25.625 28.5001 25.125 28.5001H19C18.5 28.5001 18.031 28.1251 18.031 27.6251V21.5001H14V27.5001C14 28.0161 13.594 28.5001 13.094 28.5001H7.00001C6.50001 28.5001 6.00001 28.1251 6.00001 27.6251V16.0941L4.71901 17.3751C4.62651 17.4731 4.51512 17.5514 4.39154 17.6051C4.26797 17.6589 4.13478 17.6871 4.00001 17.6881C3.75001 17.6881 3.46901 17.5631 3.28101 17.3751C3.19125 17.2845 3.12023 17.1771 3.07201 17.059C3.02379 16.941 2.99933 16.8146 3.00001 16.6871C3.00001 16.4691 3.06301 16.2191 3.21901 16.0621L13.875 4.37607C14.1525 4.09523 14.4836 3.87299 14.8487 3.72252C15.2137 3.57204 15.6052 3.49639 16 3.50007ZM16 5.50007C15.781 5.50007 15.531 5.56307 15.375 5.71907L8.00001 14.0941V26.5001H12V20.5001C12 19.9691 12.375 19.5001 12.875 19.5001H19C19.531 19.5001 20 19.8751 20 20.3751V26.5001H24V14.0941L16.719 5.78007C16.5241 5.59808 16.2667 5.49785 16 5.50007Z" fill="#1A1C1F"/>
</g>
<defs>
<clipPath id="clip0_184_187">
<rect width="32" height="32" fill="white"/>
</clipPath>
</defs>
</svg>

<svg xmlns="http://www.w3.org/2000/svg" width="32" height="32" fill="none"><g clip-path="url(#a)"><path fill="#1A1C1F" fill-rule="evenodd" d="M16 3.5c.688 0 1.437.22 1.969.75l10.75 11.72a.9.9 0 0 1 .21.332c.047.126.071.26.071.386 0 .562-.469 1-1 1-.219 0-.5-.094-.625-.22L26 16.095V27.5c0 .516-.375 1-.875 1H19c-.5 0-.969-.375-.969-.875V21.5H14v6c0 .516-.406 1-.906 1H7c-.5 0-1-.375-1-.875v-11.53l-1.281 1.28a1 1 0 0 1-.719.313c-.25 0-.531-.125-.719-.313A.97.97 0 0 1 3 16.687c0-.218.063-.468.219-.625L13.875 4.376A2.95 2.95 0 0 1 16 3.5m0 2c-.219 0-.469.063-.625.22L8 14.093V26.5h4v-6c0-.53.375-1 .875-1H19c.531 0 1 .375 1 .875V26.5h4V14.094L16.719 5.78A1.04 1.04 0 0 0 16 5.5" clip-rule="evenodd"/></g><defs><clipPath id="a"><path fill="#fff" d="M0 0h32v32H0z"/></clipPath></defs></svg>
